!!!OTL: SO WUENSCH ICH IHR EIN GUTE NACHT
!!!ARE: Europa, Mitteleuropa, Deutschland
!!!SCT: Z0291
!!!YEM: Copyright 1995, estate of Helmut Schaffrath.
**kern
*ICvox
*Ivox
*M2/4
*k[b-]
*F:
{8cc
=1
8a
8g
8f
8g
=2
4c
4e
=3
4.f}
{8f
=4
8dd
8cc
8b-
8a
=5
4g
8g}
{8cc
=6
8a
8g
8f
8g
=7
4c
4e
=8
4.f}
{8f
=9
8dd
8cc
8b-
8a
=10
4g
8g}
{8cc
=11
4ff
4ff
=12
4.ee
8ee
=13
4dd
4dd
=14
4cc}
{8b-
16a
16g
=15
8a
16b-
16a
8g
8g
=16
4.f}
{8f
=17
8dd
8cc
8b-
8a
=18
4g
8g}
{8cc
=19
4ff
4ff
=20
4.ee
8ee
=21
4dd
4dd
=22
4cc}
{8b-
16a
16g
=23
8a
16b-
16a
8g
8g
=24
4.f}
==
!!!AGN: Lyrisches Lied, Romanze
!!!ONB: ESAC (Essen Associative Code) Database: ZUCCAL
!!!AMT: simple duple
!!!AIN: vox
!!!EED: Helmut Schaffrath
!!!EEV: 1.0
*-
